resources/icons/20px/array-string.svg

<?xml version="1.0" encoding="UTF-8"?>
<svg width="20px" height="20px" viewBox="0 0 20 20" version="1.1" xmlns="http://www.w3.org/2000/svg" xmlns:xlink="http://www.w3.org/1999/xlink">
    <title>array-string</title>
    <g stroke-width="1" fill-rule="evenodd">
        <path d="M19,0 C19.5128358,0 19.9355072,0.38604019 19.9932723,0.883378875 L20,1 L20,19 C20,19.5128358 19.6139598,19.9355072 19.1166211,19.9932723 L19,20 L15,20 C14.4477153,20 14,19.5522847 14,19 C14,18.4871642 14.3860402,18.0644928 14.8833789,18.0067277 L15,18 L18,18 L18,2 L15,2 C14.4871642,2 14.0644928,1.61395981 14.0067277,1.11662113 L14,1 C14,0.487164161 14.3860402,0.0644928393 14.8833789,0.00672773132 L15,0 L19,0 Z M5,0 C5.55228475,0 6,0.44771525 6,1 C6,1.51283584 5.61395981,1.93550716 5.11662113,1.99327227 L5,2 L2,2 L2,18 L5,18 C5.51283584,18 5.93550716,18.3860402 5.99327227,18.8833789 L6,19 C6,19.5128358 5.61395981,19.9355072 5.11662113,19.9932723 L5,20 L1,20 C0.487164161,20 0.0644928393,19.6139598 0.00672773133,19.1166211 L0,19 L0,1 C0,0.487164161 0.38604019,0.0644928393 0.883378875,0.00672773133 L1,0 L5,0 Z M7.01162791,6 C7.65503876,6 8.21511628,6.26550388 8.69186047,6.79651163 C9.16860465,7.32751938 9.40697674,8.04263566 9.40697674,8.94186047 C9.40697674,9.98837209 9.08527132,10.9263566 8.44186047,11.755814 C7.79844961,12.5852713 6.78294574,13.255814 5.39534884,13.7674419 L5.39534884,13.7674419 L5.39534884,13.1860465 L5.65518231,13.0816107 C6.33122787,12.7864628 6.87252369,12.3580965 7.27906977,11.7965116 C7.73643411,11.1647287 7.96511628,10.5077519 7.96511628,9.8255814 C7.96511628,9.67829457 7.94186047,9.56976744 7.89534884,9.5 C7.87209302,9.45348837 7.84108527,9.43023256 7.80232558,9.43023256 C7.76356589,9.43023256 7.70155039,9.46124031 7.61627907,9.52325581 C7.36821705,9.70155039 7.05813953,9.79069767 6.68604651,9.79069767 C6.23643411,9.79069767 5.84302326,9.61046512 5.50581395,9.25 C5.16860465,8.88953488 5,8.46124031 5,7.96511628 C5,7.4379845 5.19379845,6.97868217 5.58139535,6.5872093 C5.96899225,6.19573643 6.44573643,6 7.01162791,6 Z M12.6046512,6 C13.248062,6 13.8081395,6.26550388 14.2848837,6.79651163 C14.7616279,7.32751938 15,8.04263566 15,8.94186047 C15,9.98837209 14.6782946,10.9263566 14.0348837,11.755814 C13.3914729,12.5852713 12.375969,13.255814 10.9883721,13.7674419 L10.9883721,13.7674419 L10.9883721,13.1860465 L11.2482056,13.0816107 C11.9242511,12.7864628 12.4655469,12.3580965 12.872093,11.7965116 C13.3294574,11.1647287 13.5581395,10.5077519 13.5581395,9.8255814 C13.5581395,9.67829457 13.5348837,9.56976744 13.4883721,9.5 C13.4651163,9.45348837 13.4341085,9.43023256 13.3953488,9.43023256 C13.3565891,9.43023256 13.2945736,9.46124031 13.2093023,9.52325581 C12.9612403,9.70155039 12.6511628,9.79069767 12.2790698,9.79069767 C11.8294574,9.79069767 11.4360465,9.61046512 11.0988372,9.25 C10.7616279,8.88953488 10.5930233,8.46124031 10.5930233,7.96511628 C10.5930233,7.4379845 10.7868217,6.97868217 11.1744186,6.5872093 C11.5620155,6.19573643 12.0387597,6 12.6046512,6 Z"></path>
    </g>
</svg>

<svg xmlns="http://www.w3.org/2000/svg" viewBox="0 0 20 20">
  <path d="M19 0a1 1 0 0 1 .993.883L20 1v18a1 1 0 0 1-.883.993L19 20h-4a1 1 0 0 1-.117-1.993L15 18h3V2h-3a1 1 0 0 1-.993-.883L14 1a1 1 0 0 1 .883-.993L15 0zM5 0a1 1 0 0 1 .117 1.993L5 2H2v16h3a1 1 0 0 1 .993.883L6 19a1 1 0 0 1-.883.993L5 20H1a1 1 0 0 1-.993-.883L0 19V1A1 1 0 0 1 .883.007L1 0zm2.012 6q.965 0 1.68.797.715.796.715 2.145a4.47 4.47 0 0 1-.965 2.814Q7.476 13 5.395 13.767v-.581l.26-.104a3.87 3.87 0 0 0 1.624-1.285q.686-.949.686-1.971 0-.221-.07-.326-.035-.07-.093-.07t-.186.093q-.372.268-.93.268-.675 0-1.18-.541A1.82 1.82 0 0 1 5 7.965q0-.79.581-1.378A1.93 1.93 0 0 1 7.011 6m5.593 0q.965 0 1.68.797.715.796.715 2.145a4.47 4.47 0 0 1-.965 2.814q-.966 1.245-3.047 2.011v-.581l.26-.104a3.87 3.87 0 0 0 1.624-1.285q.686-.949.686-1.971 0-.221-.07-.326-.034-.07-.093-.07-.057 0-.186.093-.372.268-.93.268-.675 0-1.18-.541a1.82 1.82 0 0 1-.506-1.285q0-.79.581-1.378A1.93 1.93 0 0 1 12.604 6"/>
</svg>
